Newaita-dark/.LP/scalable/weather-overcast.svg

<svg xmlns="http://www.w3.org/2000/svg" xmlns:xlink="http://www.w3.org/1999/xlink" width="512px" height="512px" viewBox="0 0 512 512" version="1.1">
<defs>
<linearGradient id="linear0" gradientUnits="userSpaceOnUse" x1="254" y1="233.5" x2="254" y2="254.666672" gradientTransform="matrix(1.000095,0,0,1.000095,-0.000000000000227395,209.728363)">
<stop offset="0" style="stop-color:rgb(0%,0%,0%);stop-opacity:0.27451;"/>
<stop offset="1" style="stop-color:rgb(0%,0%,0%);stop-opacity:0;"/>
</linearGradient>
<radialGradient id="radial0" gradientUnits="userSpaceOnUse" cx="450.908936" cy="189.579361" fx="450.908936" fy="189.579361" r="21.166656" gradientTransform="matrix(0.00000278673,-1.250119,-2.250215,-0.00000162462,786.460754,1012.233154)">
<stop offset="0" style="stop-color:rgb(0%,0%,0%);stop-opacity:0.313725;"/>
<stop offset="0.222222" style="stop-color:rgb(0%,0%,0%);stop-opacity:0.27451;"/>
<stop offset="1" style="stop-color:rgb(0%,0%,0%);stop-opacity:0;"/>
</radialGradient>
<radialGradient id="radial1" gradientUnits="userSpaceOnUse" cx="450.908936" cy="189.579361" fx="450.908936" fy="189.579361" r="21.166656" gradientTransform="matrix(-0.00000278673,1.250119,2.250215,0.00000162462,-315.457611,-125.731857)">
<stop offset="0" style="stop-color:rgb(0%,0%,0%);stop-opacity:0.313725;"/>
<stop offset="0.222222" style="stop-color:rgb(0%,0%,0%);stop-opacity:0.27451;"/>
<stop offset="1" style="stop-color:rgb(0%,0%,0%);stop-opacity:0;"/>
</radialGradient>
<radialGradient id="radial2" gradientUnits="userSpaceOnUse" cx="450.908936" cy="189.579361" fx="450.908936" fy="189.579361" r="21.166656" gradientTransform="matrix(-0.00000278673,-1.250119,2.250215,-0.00000162462,-315.457611,1012.233154)">
<stop offset="0" style="stop-color:rgb(0%,0%,0%);stop-opacity:0.313725;"/>
<stop offset="0.222222" style="stop-color:rgb(0%,0%,0%);stop-opacity:0.27451;"/>
<stop offset="1" style="stop-color:rgb(0%,0%,0%);stop-opacity:0;"/>
</radialGradient>
<radialGradient id="radial3" gradientUnits="userSpaceOnUse" cx="450.908936" cy="189.579361" fx="450.908936" fy="189.579361" r="21.166656" gradientTransform="matrix(0.00000278673,1.250119,-2.250215,0.00000162462,786.460754,-125.731865)">
<stop offset="0" style="stop-color:rgb(0%,0%,0%);stop-opacity:0.313725;"/>
<stop offset="0.222222" style="stop-color:rgb(0%,0%,0%);stop-opacity:0.27451;"/>
<stop offset="1" style="stop-color:rgb(0%,0%,0%);stop-opacity:0;"/>
</radialGradient>
<linearGradient id="linear1" gradientUnits="userSpaceOnUse" x1="211.666672" y1="-20.499998" x2="211.666672" y2="-168.666656" gradientTransform="matrix(1.000095,0,0,1.000095,-2.500346,214.346619)">
<stop offset="0" style="stop-color:rgb(56.470588%,64.313725%,68.235294%);stop-opacity:1;"/>
<stop offset="1" style="stop-color:rgb(69.019608%,74.509804%,77.254902%);stop-opacity:1;"/>
</linearGradient>
<linearGradient id="linear2" gradientUnits="userSpaceOnUse" x1="960" y1="1695.118164" x2="960" y2="815.118103" gradientTransform="matrix(0.264609,0,0,0.264609,0,0)">
<stop offset="0" style="stop-color:rgb(56.470588%,64.313725%,68.235294%);stop-opacity:1;"/>
<stop offset="1" style="stop-color:rgb(69.019608%,74.509804%,77.254902%);stop-opacity:1;"/>
</linearGradient>
</defs>
<g id="surface1">
<path style=" stroke:none;fill-rule:nonzero;fill:url(#linear0);" d="M 105.84375 443.25 L 365.160156 443.25 L 365.160156 464.417969 L 105.84375 464.417969 Z M 105.84375 443.25 "/>
<path style=" stroke:none;fill-rule:nonzero;fill:url(#radial0);" d="M 365.160156 443.25 L 407.496094 443.25 L 407.496094 422.082031 L 365.160156 422.082031 Z M 365.160156 443.25 "/>
<path style=" stroke:none;fill-rule:nonzero;fill:url(#radial1);" d="M 105.84375 443.25 L 63.507812 443.25 L 63.507812 464.417969 L 105.84375 464.417969 Z M 105.84375 443.25 "/>
<path style=" stroke:none;fill-rule:nonzero;fill:url(#radial2);" d="M 105.84375 443.25 L 63.507812 443.25 L 63.507812 422.082031 L 105.84375 422.082031 Z M 105.84375 443.25 "/>
<path style=" stroke:none;fill-rule:nonzero;fill:url(#radial3);" d="M 365.160156 443.25 L 407.496094 443.25 L 407.496094 464.417969 L 365.160156 464.417969 Z M 365.160156 443.25 "/>
<path style=" stroke:none;fill-rule:nonzero;fill:url(#linear1);" d="M 278.324219 45.664062 C 252.75 45.664062 230.285156 58.492188 216.980469 78.089844 C 205.867188 70.988281 192.367188 66.832031 177.773438 66.832031 C 145.046875 66.832031 117.800781 87.710938 110.75 115.882812 C 104.144531 111.632812 96.273438 109.167969 87.804688 109.167969 C 64.351562 109.167969 45.46875 128.050781 45.46875 151.507812 C 45.46875 174.960938 64.351562 193.84375 87.804688 193.84375 L 278.324219 193.84375 C 319.367188 193.84375 352.414062 160.800781 352.414062 119.753906 C 352.414062 78.707031 319.367188 45.664062 278.324219 45.664062 Z M 125.214844 171.402344 C 125.609375 171.832031 126.007812 172.257812 126.414062 172.675781 L 124.511719 172.675781 C 124.753906 172.257812 124.988281 171.832031 125.214844 171.402344 Z M 125.214844 171.402344 "/>
<path style=" stroke:none;fill-rule:nonzero;fill:url(#linear2);" d="M 349.285156 215.6875 C 302.742188 215.6875 262.746094 242.722656 244.085938 282.011719 C 237.128906 280.175781 229.820312 279.191406 222.269531 279.191406 C 186.046875 279.191406 155.285156 301.714844 143.144531 333.574219 C 132.683594 325.992188 119.804688 321.53125 105.84375 321.53125 C 70.660156 321.53125 42.335938 349.855469 42.335938 385.035156 C 42.335938 420.21875 70.660156 448.542969 105.84375 448.542969 C 108.457031 448.542969 111.03125 448.382812 113.5625 448.078125 C 114.472656 448.378906 115.433594 448.542969 116.429688 448.542969 L 349.285156 448.542969 C 349.289062 448.542969 349.296875 448.542969 349.304688 448.542969 C 413.796875 448.53125 465.710938 396.609375 465.710938 332.113281 C 465.710938 267.613281 413.785156 215.6875 349.285156 215.6875 Z M 349.285156 215.6875 "/>
<path style=" stroke:none;fill-rule:nonzero;fill:rgb(100%,100%,100%);fill-opacity:0.392157;" d="M 349.285156 215.6875 C 302.742188 215.6875 262.746094 242.722656 244.085938 282.011719 C 237.128906 280.175781 229.820312 279.191406 222.269531 279.191406 C 186.046875 279.191406 155.285156 301.714844 143.144531 333.574219 C 132.683594 325.992188 119.804688 321.53125 105.84375 321.53125 C 70.660156 321.53125 42.335938 349.855469 42.335938 385.035156 C 42.335938 385.921875 42.359375 386.804688 42.394531 387.683594 C 43.773438 353.738281 71.546875 326.824219 105.84375 326.824219 C 119.804688 326.824219 132.683594 331.285156 143.144531 338.867188 C 155.285156 307.007812 186.046875 284.484375 222.269531 284.484375 C 229.820312 284.484375 237.128906 285.46875 244.085938 287.304688 C 262.746094 248.015625 302.742188 220.980469 349.285156 220.980469 C 412.898438 220.980469 464.28125 271.492188 465.679688 334.761719 C 465.699219 333.882812 465.710938 333 465.710938 332.113281 C 465.710938 267.613281 413.785156 215.6875 349.285156 215.6875 Z M 349.285156 215.6875 "/>
<path style=" stroke:none;fill-rule:nonzero;fill:rgb(0%,0%,0%);fill-opacity:0.235294;" d="M 465.683594 329.699219 C 464.410156 393.070312 412.988281 443.703125 349.304688 443.714844 C 349.296875 443.714844 349.289062 443.714844 349.285156 443.714844 L 116.429688 443.714844 C 115.433594 443.714844 114.472656 443.550781 113.5625 443.25 C 111.03125 443.554688 108.457031 443.714844 105.84375 443.714844 C 71.46875 443.714844 43.648438 416.675781 42.386719 382.621094 C 42.355469 383.421875 42.335938 384.226562 42.335938 385.035156 C 42.335938 420.21875 70.660156 448.542969 105.84375 448.542969 C 108.457031 448.542969 111.03125 448.382812 113.5625 448.078125 C 114.472656 448.378906 115.433594 448.542969 116.429688 448.542969 L 349.285156 448.542969 C 349.289062 448.542969 349.296875 448.542969 349.304688 448.542969 C 413.796875 448.53125 465.710938 396.609375 465.710938 332.113281 C 465.710938 331.308594 465.699219 330.503906 465.683594 329.699219 Z M 465.683594 329.699219 "/>
<path style="fill:none;stroke-width:11.338583;stroke-linecap:round;stroke-linejoin:miter;stroke:rgb(12.941177%,12.941177%,12.941177%);stroke-opacity:1;stroke-miterlimit:4;" d="M 1320.004778 815.11775 C 1144.111414 815.11775 992.959744 917.287953 922.440012 1065.767639 C 896.148272 1058.829336 868.527921 1055.109224 839.992304 1055.109224 C 703.101061 1055.109224 586.847579 1140.228917 540.966204 1260.630619 C 501.432639 1231.976903 452.761181 1215.118303 400.000553 1215.118303 C 267.036094 1215.118303 159.994316 1322.160081 159.994316 1455.109777 C 159.994316 1588.074237 267.036094 1695.116014 400.000553 1695.116014 C 409.876563 1695.116014 419.60495 1694.510758 429.170951 1693.359295 C 432.610578 1694.495996 436.242115 1695.116014 440.006513 1695.116014 L 1320.004778 1695.116014 C 1320.01954 1695.116014 1320.049065 1695.116014 1320.07859 1695.116014 C 1563.804938 1695.071727 1759.996529 1498.850612 1759.996529 1255.109501 C 1759.996529 1011.353628 1563.760651 815.11775 1320.004778 815.11775 Z M 1320.004778 815.11775 " transform="matrix(0.264609,0,0,0.264609,0,0)"/>
<path style=" stroke:none;fill-rule:nonzero;fill:rgb(100%,100%,100%);fill-opacity:0.392157;" d="M 280.824219 45.664062 C 255.25 45.664062 232.785156 58.492188 219.480469 78.089844 C 208.371094 70.988281 194.867188 66.832031 180.273438 66.832031 C 147.546875 66.832031 120.300781 87.710938 113.25 115.882812 C 106.648438 111.632812 98.773438 109.167969 90.304688 109.167969 C 66.851562 109.167969 47.96875 128.050781 47.96875 151.507812 C 47.96875 152.394531 47.996094 153.277344 48.050781 154.152344 C 49.410156 131.941406 67.738281 114.460938 90.304688 114.460938 C 98.773438 114.460938 106.648438 116.925781 113.25 121.175781 C 120.300781 93.003906 147.546875 72.125 180.273438 72.125 C 194.867188 72.125 208.371094 76.28125 219.480469 83.382812 C 232.785156 63.785156 255.25 50.957031 280.824219 50.957031 C 320.984375 50.957031 353.476562 82.589844 354.863281 122.398438 C 354.890625 121.523438 354.914062 120.640625 354.914062 119.753906 C 354.914062 78.707031 321.871094 45.664062 280.824219 45.664062 Z M 127.714844 176.695312 C 127.488281 177.121094 127.253906 177.546875 127.011719 177.96875 L 128.914062 177.96875 C 128.507812 177.546875 128.109375 177.125 127.714844 176.695312 Z M 127.714844 176.695312 "/>
<path style=" stroke:none;fill-rule:nonzero;fill:rgb(0%,0%,0%);fill-opacity:0.235294;" d="M 352.375 117.445312 C 351.160156 157.414062 318.597656 189.226562 278.324219 189.226562 L 87.804688 189.226562 C 65.125 189.226562 46.722656 171.570312 45.53125 149.199219 C 45.488281 149.960938 45.46875 150.730469 45.46875 151.507812 C 45.46875 174.960938 64.351562 193.84375 87.804688 193.84375 L 278.324219 193.84375 C 319.367188 193.84375 352.414062 160.800781 352.414062 119.753906 C 352.414062 118.980469 352.398438 118.210938 352.375 117.445312 Z M 125.214844 166.78125 C 124.988281 167.210938 124.753906 167.636719 124.511719 168.058594 L 126.414062 168.058594 C 126.007812 167.636719 125.609375 167.210938 125.214844 166.78125 Z M 125.214844 166.78125 "/>
<path style="fill:none;stroke-width:3;stroke-linecap:square;stroke-linejoin:round;stroke:rgb(12.941177%,12.941177%,12.941177%);stroke-opacity:1;stroke-miterlimit:4;" d="M 278.297778 -169.340387 C 252.725989 -169.340387 230.263279 -156.513481 216.959855 -136.917686 C 205.84763 -144.018574 192.348912 -148.174429 177.756549 -148.174429 C 145.033095 -148.174429 117.78959 -127.297506 110.739479 -99.128308 C 104.134637 -103.377904 96.264291 -105.842514 87.796346 -105.842514 C 64.345449 -105.842514 45.46443 -86.961495 45.46443 -63.506692 C 45.46443 -40.055795 64.345449 -21.174777 87.796346 -21.174777 L 278.297778 -21.174777 C 319.336847 -21.174777 352.380583 -54.214606 352.380583 -95.257582 C 352.380583 -136.300557 319.336847 -169.340387 278.297778 -169.340387 Z M 125.202948 -43.614051 C 125.597442 -43.184404 125.995842 -42.758663 126.402053 -42.340734 L 124.49989 -42.340734 C 124.742055 -42.758663 124.976407 -43.184404 125.202948 -43.614051 Z M 125.202948 -43.614051 " transform="matrix(1.000095,0,0,1.000095,0,215.020538)"/>
</g>
</svg>

<svg xmlns="http://www.w3.org/2000/svg" width="512" height="512"><defs><linearGradient id="a" gradientUnits="userSpaceOnUse" x1="254" y1="233.5" x2="254" y2="254.667" gradientTransform="matrix(1.0001 0 0 1.0001 0 209.728)"><stop offset="0" stop-opacity=".275"/><stop offset="1" stop-opacity="0"/></linearGradient><radialGradient id="b" gradientUnits="userSpaceOnUse" cx="450.909" cy="189.579" fx="450.909" fy="189.579" r="21.167" gradientTransform="matrix(0 -1.25012 -2.25021 0 786.46 1012.233)"><stop offset="0" stop-opacity=".314"/><stop offset=".222" stop-opacity=".275"/><stop offset="1" stop-opacity="0"/></radialGradient><radialGradient id="c" gradientUnits="userSpaceOnUse" cx="450.909" cy="189.579" fx="450.909" fy="189.579" r="21.167" gradientTransform="matrix(0 1.25012 2.25021 0 -315.458 -125.732)"><stop offset="0" stop-opacity=".314"/><stop offset=".222" stop-opacity=".275"/><stop offset="1" stop-opacity="0"/></radialGradient><radialGradient id="d" gradientUnits="userSpaceOnUse" cx="450.909" cy="189.579" fx="450.909" fy="189.579" r="21.167" gradientTransform="matrix(0 -1.25012 2.25021 0 -315.458 1012.233)"><stop offset="0" stop-opacity=".314"/><stop offset=".222" stop-opacity=".275"/><stop offset="1" stop-opacity="0"/></radialGradient><radialGradient id="e" gradientUnits="userSpaceOnUse" cx="450.909" cy="189.579" fx="450.909" fy="189.579" r="21.167" gradientTransform="matrix(0 1.25012 -2.25021 0 786.46 -125.732)"><stop offset="0" stop-opacity=".314"/><stop offset=".222" stop-opacity=".275"/><stop offset="1" stop-opacity="0"/></radialGradient><linearGradient id="f" gradientUnits="userSpaceOnUse" x1="211.667" y1="-20.5" x2="211.667" y2="-168.667" gradientTransform="matrix(1.0001 0 0 1.0001 -2.5 214.347)"><stop offset="0" stop-color="#90a4ae"/><stop offset="1" stop-color="#b0bec5"/></linearGradient><linearGradient id="g" gradientUnits="userSpaceOnUse" x1="960" y1="1695.118" x2="960" y2="815.118" gradientTransform="rotate(.158) scale(.26461)"><stop offset="0" stop-color="#90a4ae"/><stop offset="1" stop-color="#b0bec5"/></linearGradient></defs><path d="M105.844 443.25H365.16v21.168H105.844zm0 0" fill="url(#a)"/><path d="M365.16 443.25h42.336v-21.168H365.16zm0 0" fill="url(#b)"/><path d="M105.844 443.25H63.508v21.168h42.336zm0 0" fill="url(#c)"/><path d="M105.844 443.25H63.508v-21.168h42.336zm0 0" fill="url(#d)"/><path d="M365.16 443.25h42.336v21.168H365.16zm0 0" fill="url(#e)"/><path d="M278.324 45.664c-25.574 0-48.039 12.828-61.344 32.426-11.113-7.102-24.613-11.258-39.207-11.258-32.726 0-59.972 20.879-67.023 49.05-6.605-4.25-14.477-6.714-22.945-6.714-23.453 0-42.336 18.883-42.336 42.34 0 23.453 18.883 42.336 42.336 42.336h190.52c41.042 0 74.09-33.043 74.09-74.09 0-41.047-33.048-74.09-74.09-74.09zm-153.11 125.738c.395.43.794.856 1.2 1.274h-1.902c.242-.418.476-.844.703-1.274zm0 0" fill="url(#f)"/><path d="M349.285 215.688c-46.543 0-86.539 27.035-105.2 66.324a85.378 85.378 0 0 0-21.815-2.82c-36.223 0-66.985 22.523-79.125 54.382-10.461-7.582-23.34-12.043-37.301-12.043-35.184 0-63.508 28.324-63.508 63.504 0 35.184 28.324 63.508 63.508 63.508 2.613 0 5.187-.16 7.719-.465.91.3 1.87.465 2.867.465h232.875c64.492-.012 116.406-51.934 116.406-116.43 0-64.5-51.926-116.425-116.426-116.425zm0 0" fill="url(#g)"/><path d="M349.285 215.688c-46.543 0-86.539 27.035-105.2 66.324a85.378 85.378 0 0 0-21.815-2.82c-36.223 0-66.985 22.523-79.125 54.382-10.461-7.582-23.34-12.043-37.301-12.043-35.184 0-63.508 28.324-63.508 63.504 0 .887.023 1.77.059 2.649 1.378-33.946 29.152-60.86 63.449-60.86 13.96 0 26.84 4.461 37.3 12.043 12.141-31.86 42.903-54.383 79.126-54.383 7.55 0 14.859.985 21.816 2.82 18.66-39.288 58.656-66.324 105.2-66.324 63.612 0 114.995 50.512 116.394 113.782.02-.88.03-1.762.03-2.649 0-64.5-51.925-116.425-116.425-116.425zm0 0" fill="#fff" fill-opacity=".392"/><path d="M465.684 329.7c-1.274 63.37-52.696 114.003-116.38 114.015H116.43a9.11 9.11 0 0 1-2.868-.465 64.545 64.545 0 0 1-7.718.465c-34.375 0-62.196-27.04-63.457-61.094-.032.8-.051 1.606-.051 2.414 0 35.184 28.324 63.508 63.508 63.508 2.613 0 5.187-.16 7.719-.465.91.3 1.87.465 2.867.465h232.875c64.492-.012 116.406-51.934 116.406-116.43 0-.804-.012-1.61-.027-2.414zm0 0" fill-opacity=".235"/><path d="M349.285 215.687c-46.543 0-86.539 27.036-105.2 66.325a85.378 85.378 0 0 0-21.815-2.82c-36.223 0-66.985 22.523-79.125 54.382-10.461-7.582-23.34-12.043-37.301-12.043-35.184 0-63.508 28.324-63.508 63.504 0 35.184 28.324 63.508 63.508 63.508 2.613 0 5.187-.16 7.718-.465.91.3 1.872.465 2.868.465h232.875c64.492-.012 116.406-51.934 116.406-116.43 0-64.5-51.926-116.426-116.426-116.426zm0 0" fill="none" stroke-width="3.0004127900000004" stroke-linecap="round" stroke="#212121"/><path d="M280.824 45.664c-25.574 0-48.039 12.828-61.344 32.426-11.109-7.102-24.613-11.258-39.207-11.258-32.726 0-59.972 20.879-67.023 49.05-6.602-4.25-14.477-6.714-22.945-6.714-23.453 0-42.336 18.883-42.336 42.34 0 .887.027 1.77.082 2.644 1.36-22.21 19.687-39.691 42.254-39.691 8.468 0 16.343 2.465 22.945 6.715 7.05-28.172 34.297-49.051 67.023-49.051 14.594 0 28.098 4.156 39.207 11.258 13.305-19.598 35.77-32.426 61.344-32.426 40.16 0 72.653 31.633 74.04 71.441.027-.875.05-1.757.05-2.644 0-41.047-33.043-74.09-74.09-74.09zm-153.11 131.031c-.226.426-.46.852-.702 1.274h1.902a73.442 73.442 0 0 1-1.2-1.274zm0 0" fill="#fff" fill-opacity=".392"/><path d="M352.375 117.445c-1.215 39.97-33.777 71.782-74.05 71.782H87.804c-22.68 0-41.082-17.657-42.274-40.028a40.994 40.994 0 0 0-.062 2.309c0 23.453 18.883 42.336 42.336 42.336h190.52c41.042 0 74.09-33.043 74.09-74.09 0-.774-.017-1.543-.04-2.309zm-227.16 49.336c-.227.43-.461.856-.703 1.278h1.902a73.663 73.663 0 0 1-1.2-1.278zm0 0" fill-opacity=".235"/><path d="M278.324 45.664c-25.574 0-48.039 12.828-61.344 32.426-11.113-7.102-24.613-11.258-39.207-11.258-32.726 0-59.972 20.879-67.023 49.05-6.605-4.25-14.477-6.714-22.945-6.714-23.453 0-42.336 18.883-42.336 42.34 0 23.453 18.883 42.336 42.336 42.336h190.52c41.042 0 74.09-33.043 74.09-74.09 0-41.047-33.048-74.09-74.09-74.09zm-153.11 125.738c.395.43.794.856 1.2 1.274h-1.902c.242-.418.476-.844.703-1.274zm0 0" fill="none" stroke-width="3.0002699999999995" stroke-linecap="square" stroke-linejoin="round" stroke="#212121"/></svg>
